!!!COM: Henri Reber
!!!CNT: Francais
!!!TXO: Francais
!!!OTL: Le De/part
!!!LYR: Charles Malherbe
!!!ODT: 1842/
!!!ENC: Jacob Pegg
!!!YOR: Romantic French Song 1830-1870, David Tunley, ed., New York: Garland Publishing, Inc., 1995, vol. 3
!!NB: Vocal melody and text only encoded.
!!NB: First instance of melodic material only encoded.
**kern	**silbe
*clef G2	*
*k[f#]	*
*M3/4	*
=3	=3
4r	.
{4b	{Ils
4dd	s'en
=4	=4
2g	vont
4cc	ces
=5	=5
2cc	rois
8.b	de
16cc	ma
=6	=6
4b	vi-
4a}	-e,}
{4b	{Ces
=7	=7
4.b	yeux,
8c	ces
4a	beaux
=8	=8
[2.b	yeux,
=9	=9
8b]}	|}
8r	.
{4g	{dont
4a	l'e/-
=10	=10
4b	-clat
8b	fait
8b	pa^-
(ddq	|
8cc)	-lir
8b	d'en-
=11	=11
4b	-vi-
4a}	-e,}
{4a	{Ceux
=12	=12
(4.a	me^-
8g)	|
8g	-me
8g	des
=13	=13
(f#q	cieux.
2a)}	|}
4r	.
=14	=14
{2dd	{Dieux,
8r	.
8cc	a-
=15	=15
8b	-mis
8cc	de
8a	l'in-
8b	-no-
8cc	-cen-
8b}	-ce,}
=16	=16
{8.ee	{Qu'ai~
16a	~je
4.a	fait
8a	pour
=17	=17
*M4/4	*
8.cc	me/-
16b	-ri-
2b}	-ter}
{8b	{les
8dd	en-
=18	=18
*M3/4	*
4.cc	-nuis
8b	ou\
8a	cette
8cc	ab-
=19	=19
4b	-sen-
4b}	-ce}
{[4b	{Va
=20	=20
4b]	|
8b	me
8a	pre/-
8g	-ci-
8a	-pi-
=21	=21
2g}	-ter?}
4r	.
*-	*-
